lib/logo_tmp/nrk-logo-nrk-super.svg

<svg width="63" height="22" viewBox="0 0 63 22" fill="none" xmlns="http://www.w3.org/2000/svg">
<path d="M0 18V4.00127H4.59339V18H0ZM10.8428 6.22924L13.4844 18H8.45737L5.30307 4.00127H8.12254C8.76907 3.99288 9.39641 4.22079 9.88691 4.64212C10.3782 5.04578 10.7158 5.60615 10.8428 6.22924ZM14.1744 18V4.00127H18.7678V18H14.1744ZM22.2372 9.32478C21.7422 9.32961 21.2552 9.2001 20.828 8.95013C20.4064 8.70647 20.0563 8.35629 19.8127 7.9347C19.5624 7.50739 19.4329 7.02022 19.4378 6.52504C19.4321 6.03287 19.5618 5.54861 19.8127 5.12516C20.0589 4.70815 20.4086 4.36178 20.828 4.11961C21.2553 3.86992 21.7423 3.74043 22.2372 3.74495C22.7292 3.73965 23.2133 3.86925 23.6369 4.11961C24.0521 4.3639 24.3981 4.70999 24.6424 5.12516C24.893 5.54873 25.0226 6.03291 25.0172 6.52504C25.0218 7.02018 24.8923 7.50727 24.6424 7.9347C24.4007 8.35444 24.0542 8.70433 23.6369 8.95013C23.2133 9.20097 22.7295 9.33061 22.2372 9.32478ZM25.7269 18V4.00127H30.3207V18H25.7269ZM36.136 11.6513C36.1489 11.6649 36.2475 11.8259 36.4317 12.1343C36.6159 12.4428 36.8558 12.8371 37.1513 13.3173C37.447 13.7973 37.759 14.3066 38.0874 14.8453C38.4157 15.384 38.7247 15.8934 39.0143 16.3734C39.3028 16.8534 39.6313 17.3956 40 18H34.9531C34.6375 17.4874 34.3515 17.024 34.0952 16.61C33.8389 16.1959 33.5665 15.749 33.2778 15.2692C32.9884 14.7899 32.7024 14.3233 32.4196 13.8694C32.1368 13.4155 31.8938 13.0179 31.6905 12.6766C31.4863 12.335 31.3449 12.105 31.2663 11.9865C31.0713 11.6924 30.9559 11.3527 30.9315 11.0006C30.951 10.6628 31.0597 10.3361 31.2466 10.054C31.3254 9.92252 31.47 9.68917 31.6803 9.35399C31.8906 9.01881 32.137 8.62123 32.4196 8.16118C32.7021 7.70113 32.9882 7.2312 33.2778 6.75144C33.5674 6.27167 33.8398 5.82144 34.0952 5.40082C34.3519 4.98064 34.6379 4.51402 34.9531 4.00095H40L36.0962 10.3694C35.9754 10.5585 35.9073 10.7764 35.8991 11.0006C35.9121 11.236 35.995 11.4624 36.136 11.6513Z" fill="white"/>
<path d="M56.3657 1.47625C57.597 1.9985 58.7161 2.75335 59.6615 3.69946C60.6077 4.64494 61.3626 5.76411 61.8847 6.9956C62.424 8.26701 62.6971 9.63538 62.6873 11.0164C62.6959 12.3912 62.4228 13.7533 61.8847 15.0185C61.3624 16.2499 60.6076 17.369 59.6615 18.3146C58.716 19.2606 57.597 20.0155 56.3657 20.5378C55.0941 21.0768 53.7256 21.3498 52.3446 21.3401C50.9635 21.35 49.595 21.0769 48.3235 20.5378C47.0941 20.017 45.9779 19.2619 45.037 18.3146C44.096 17.367 43.3448 16.2482 42.8238 15.0185C42.2856 13.7533 42.0124 12.3912 42.0212 11.0164C42.0112 9.63536 42.2844 8.26696 42.8238 6.9956C43.3446 5.76581 44.0958 4.64699 45.037 3.69946C45.9778 2.75211 47.0941 1.997 48.3235 1.47625C49.595 0.937049 50.9635 0.664013 52.3446 0.673969C53.7257 0.664131 55.0941 0.937163 56.3657 1.47625ZM55.5924 18.6529C56.5807 18.239 57.4798 17.6383 58.2406 16.8837C59.0013 16.1298 59.6057 15.2332 60.0192 14.2452C60.448 13.2231 60.6651 12.1247 60.6571 11.0164C60.6649 9.90816 60.4479 8.80987 60.0192 7.78791C59.6041 6.79794 59 5.89841 58.2406 5.13971C57.4805 4.37949 56.5815 3.77231 55.5924 3.35116C54.5655 2.91535 53.4601 2.69503 52.3446 2.70385C51.2354 2.69623 50.1366 2.91655 49.1161 3.35116C48.1268 3.77223 47.2275 4.37941 46.4673 5.13971C45.7071 5.89979 45.1 6.79881 44.679 7.78791C44.2444 8.80836 44.024 9.90724 44.0317 11.0164C44.0239 12.1256 44.2443 13.2247 44.679 14.2452C45.0984 15.2323 45.7058 16.1284 46.4673 16.8837C47.2282 17.6383 48.1276 18.239 49.1161 18.6529C50.1381 19.0816 51.2364 19.2986 52.3446 19.2909C53.4592 19.2999 54.564 19.0828 55.5924 18.6529ZM47.8302 12.1766C47.6842 12.033 47.5688 11.8613 47.4908 11.672C47.4128 11.4826 47.3738 11.2795 47.3762 11.0747C47.3712 10.8638 47.4089 10.6541 47.4869 10.4581C47.5649 10.2621 47.6816 10.0839 47.8302 9.9341C47.9732 9.78395 48.1459 9.66516 48.3372 9.58529C48.5286 9.50541 48.7345 9.4662 48.9418 9.47013C49.1549 9.46603 49.3666 9.50501 49.5643 9.58474C49.7619 9.66446 49.9414 9.7833 50.0921 9.9341C50.2458 10.081 50.3673 10.2583 50.4489 10.4546C50.5304 10.651 50.5703 10.8621 50.566 11.0747C50.5676 11.2812 50.5263 11.4857 50.4447 11.6754C50.3631 11.8651 50.2431 12.0358 50.0921 12.1766C49.9414 12.3274 49.7619 12.4463 49.5643 12.526C49.3666 12.6057 49.1549 12.6447 48.9418 12.6406C48.7345 12.6445 48.5286 12.6053 48.3372 12.5254C48.1459 12.4456 47.9732 12.3268 47.8302 12.1766ZM55.6887 8.7935C55.7016 8.75451 55.7277 8.75451 55.7664 8.7935L56.2304 10.0501C56.2385 10.0845 56.2584 10.115 56.2866 10.1363C56.3149 10.1575 56.3497 10.1682 56.385 10.1664L57.7573 10.2047C57.7831 10.2047 57.796 10.2147 57.796 10.2341C57.7921 10.2607 57.7783 10.2849 57.7573 10.3017L56.7713 11.1524C56.7518 11.1579 56.7336 11.1675 56.718 11.1805C56.7023 11.1935 56.6896 11.2096 56.6805 11.2278C56.6714 11.2459 56.6662 11.2658 56.6652 11.2861C56.6642 11.3064 56.6674 11.3267 56.6747 11.3457L57.023 12.6023C57.023 12.6667 57.0033 12.6989 56.9647 12.6989L55.8241 11.945C55.7491 11.9185 55.6673 11.9185 55.5924 11.945L54.5095 12.6989C54.4579 12.6989 54.4387 12.6667 54.4518 12.6023L54.7998 11.3457C54.8029 11.3077 54.7956 11.2696 54.7786 11.2355C54.7615 11.2014 54.7354 11.1726 54.7031 11.1524L53.6788 10.3017C53.6672 10.281 53.6605 10.2578 53.6595 10.2341C53.6595 10.2147 53.6656 10.2047 53.6788 10.2047L55.0511 10.1664C55.0891 10.1703 55.1273 10.1609 55.1591 10.1396C55.1908 10.1184 55.2142 10.0867 55.2251 10.0501L55.6887 8.7935Z" fill="white"/>
</svg>

<svg xmlns="http://www.w3.org/2000/svg" viewBox="0 0 63 22"><path fill="#fff" d="M0 18V4.001h4.593V18H0ZM10.843 6.23 13.484 18H8.457L5.303 4.001h2.82a2.655 2.655 0 0 1 1.764.641c.491.404.829.964.956 1.587ZM14.174 18V4.001h4.594V18h-4.594Zm8.063-8.675a2.737 2.737 0 0 1-1.409-.375 2.778 2.778 0 0 1-1.015-1.015 2.735 2.735 0 0 1-.375-1.41 2.685 2.685 0 0 1 .375-1.4 2.812 2.812 0 0 1 3.824-1.005c.415.244.761.59 1.005 1.005.251.424.38.908.375 1.4.005.495-.125.982-.375 1.41a2.8 2.8 0 0 1-1.005 1.015c-.424.251-.907.38-1.4.375ZM25.727 18V4.001h4.594V18h-4.594Zm10.409-6.349c.013.014.111.175.296.483.184.309.424.703.72 1.183a384.573 384.573 0 0 1 1.862 3.056c.289.48.617 1.023.986 1.627h-5.047l-.858-1.39c-.256-.414-.529-.861-.817-1.34-.29-.48-.576-.947-.858-1.4a71.148 71.148 0 0 1-.73-1.193 21.006 21.006 0 0 0-.424-.69 2.04 2.04 0 0 1-.334-.986c.019-.338.128-.665.315-.947.078-.131.223-.365.433-.7a216.97 216.97 0 0 0 1.598-2.603l.817-1.35.858-1.4H40l-3.904 6.368c-.12.19-.189.407-.197.632a1.2 1.2 0 0 0 .237.65ZM56.366 1.476A10.4 10.4 0 0 1 59.66 3.7a10.396 10.396 0 0 1 2.224 3.297c.539 1.271.812 2.64.802 4.02a10.065 10.065 0 0 1-.802 4.002 10.404 10.404 0 0 1-5.52 5.52c-1.27.539-2.64.812-4.02.802-1.381.01-2.75-.263-4.021-.802a10.288 10.288 0 0 1-3.287-2.223 10.48 10.48 0 0 1-2.213-3.297 10.06 10.06 0 0 1-.803-4.002c-.01-1.38.263-2.749.803-4.02a10.471 10.471 0 0 1 2.213-3.297 10.286 10.286 0 0 1 3.287-2.223c1.271-.539 2.64-.812 4.02-.802 1.382-.01 2.75.263 4.022.802Zm-.774 17.177a8.33 8.33 0 0 0 2.649-1.77 8.193 8.193 0 0 0 2.416-5.867 8.197 8.197 0 0 0-.638-3.228 8.256 8.256 0 0 0-1.778-2.648 8.396 8.396 0 0 0-2.649-1.789 8.148 8.148 0 0 0-3.247-.647 8.097 8.097 0 0 0-3.229.647 8.395 8.395 0 0 0-4.437 4.437 8.096 8.096 0 0 0-.647 3.228 8.094 8.094 0 0 0 .647 3.23 8.273 8.273 0 0 0 1.788 2.638 8.331 8.331 0 0 0 2.65 1.769 8.199 8.199 0 0 0 3.228.638 8.248 8.248 0 0 0 3.247-.638Zm-7.762-6.476a1.52 1.52 0 0 1-.454-1.102 1.567 1.567 0 0 1 .454-1.14 1.496 1.496 0 0 1 1.112-.465 1.583 1.583 0 0 1 1.15.464 1.535 1.535 0 0 1 .474 1.14 1.49 1.49 0 0 1-.474 1.103 1.584 1.584 0 0 1-1.15.464 1.496 1.496 0 0 1-1.112-.464Zm7.859-3.383c.013-.04.039-.04.077 0l.464 1.256a.152.152 0 0 0 .155.116l1.372.039c.026 0 .039.01.039.03a.106.106 0 0 1-.039.067l-.986.85a.145.145 0 0 0-.09.076.146.146 0 0 0-.006.118l.348 1.256c0 .065-.02.097-.058.097l-1.14-.754a.348.348 0 0 0-.233 0l-1.082.754c-.052 0-.071-.032-.058-.097l.348-1.256a.209.209 0 0 0-.097-.194l-1.024-.85a.152.152 0 0 1-.02-.068c0-.02.007-.03.02-.03l1.372-.038a.164.164 0 0 0 .174-.116l.464-1.257Z"/></svg>
